X:1
T:Il Carnevale di Venezia
T:Il Carnevale di Venezia
T:Niccolò Paganini
C:Nicolò Paganini
L:1/8
M:3/4
K:G
V:1 treble nm="Violino" snm="Vln."
V:1
 z2 z2 D2 | E4 D2 | C4 B,2 | C2 A,4 | z2 A,2 B,2 | C4 D2 | E4 D2 | B,6 | z2 z2 D2 | G4 D2 | %10
 D2 C2 B,2 | C2 A,4 | z2 A,2 B,2 | C4 D2 | E4 D2 | G,6 | z2 z2 D2 | D2 C2 B,2 | B,2 A,2 G,2 | A,6 | %20
 z2 A,2 B,2 | C4 D2 | E4 D2 | B,6 | z2 z2 D2 | G4 D2 | D2 C2 B,2 | C2 A,4 | z2 A,2 B,2 | C4 D2 | %30
 E4 D2 | G,6- | G,2 z4 |] %33

